X:0990
T:A Do.
M:C
L:1/8
Q:1/4=120
I: :: ::
Z:Jack Campin * www.campin.me.uk * 2009
K:A Mixolydian
d<dF<F G>FE>D|B>BA>F A2 A2 |B<dA>F G>FE>D|BA`B>F A2A2:|
f<dg>f e>dec |f<df>g a2 a>b|a<fg>e f<de>B|d<AB>F A2A2:|
<end>
<start>
